X: 156
T: Ağlatma Beni, İncitme Aman
C: Dede Efendi
O: Turkey
F: http://compmusic.upf.edu/node/140
N: beyati--sarki--aksaksemai--aglatma_beni--dede_efendi
N: makam= beyati
N: form= sarki
N: usul= aksaksemai = 10/8
M: 10/8
L: 1/16
K: C _2/4B   
Q: 1/4=108
%%MIDI tuningsystem comma53
d4 eded cBdc B.AGA Bcd2  | gffe eddc2Bed {f}edd4z2  | 
w:  ARANAĞME  |   | 
efef edc3gg^f _7/8edfe dcBA  | AcBc dfed2ccB BAA4z2  | 
w:   |   | 
d4 A2d3edc Bcd4ef  | d4 A2f3efe fgfe d2ef  | 
w:  Ah  ağ lat *  ma  *  *  be ni   |  *  in cit *  me  *  *  a man    | 
d4 gffe2ded cBBA AGBc  | dedc eddc2BBA {c}Aedc/B/ A2^fa  | 
w:  *  Dî *  vâ *  *  ne  *  di *  lin   |  *  *  *  *  hâl_ *  ol *  *  du  *  *  *  ya man   *  *  *  SAZ  | 
g4 c2g3agf efg4a_b  | g4 f2f3efe fgfe d2ef  | 
w:  Ah  nit tim  *  sa *  *  na  ben   |  *  ey  ka *  şı  *  *  ke man    | 
d4 gffe2ded cBBA AGBc  | dedc eddc2BBA {c}Aedc/B/ A2z2  | 
w:  *  Böy *  le  *  ce fâ *  *  *  nın   |  *  *  *  *  yok *  tur  *  sa fâ *  *  *  *  sı    | 
d4 eded cBdc B.AGA Bcd2  | gffe eddc2Bed {f}edd4z2  | 
w:  ARANAĞME  |   | 
efef edc3gg^f _7/8edfe dcBA  | AcBc dfed2ccB BAA4z2  | 
w:   |   | 
d4 A2d3edc Bcd4ef  | d4 A2f3efe fgfe d2ef  | 
w:  Ah  ağ lat *  ma  *  *  be ni   |  *  in cit *  me  *  *  a man    | 
d4 gffe2ded cBBA AGBc  | dedc eddc2BBA {c}Aedc/B/ A2^fa  | 
w:  *  Dî *  vâ *  *  ne  *  di *  lin   |  *  *  *  *  hâl_ *  ol *  *  du  *  *  *  ya man   *  *  *  SAZ  | 
g4 c2g3agf efg4a_b  | g4 f2f3efe fgfe d2ef  | 
w:  Ah  nit tim  *  sa *  *  na  ben   |  *  ey  ka *  şı  *  *  ke man    | 
d4 gffe2ded cBBA AGBc  | dedc eddc2BBA {c}Aedc/B/ A2z2  | 
w:  *  Böy *  le  *  ce fâ *  *  *  nın   |  *  *  *  *  yok *  tur  *  sa fâ *  *  *  *  sı    | 
|


